X:1
T: But and Ben
C:
R:Strathspey
Q: 128
K:D
M:4/4
L:1/16
|:A3G F3E D4 d3e|f4 e3d fa3 a4|A3G F3E D4 d3e|f3e d3c B6d2|
A3G F3E D4 d3e|f4 e3d fa3 a4|A3G F3E D4 d3e|f3e d3c B6d2|
A3B d3e f3e d3A|B4 g3B BA3 A3B|A3B d3e f3a f3d|BB3 g3f e6A2|
A3B d3e f3e d3A|B4 g3B BA3 A3B|A3B d3e f3a f3d|Bd3 ce3 d8:|
